packages/core/src/svgs/tokens/mono/DBC.svg

<svg width="24" height="24" viewBox="0 0 24 24" fill="none" xmlns="http://www.w3.org/2000/svg">
<path d="M9.78517 12.8946L8.13488 14.5574C7.83774 14.8558 7.54688 15.1574 7.24916 15.4546C7.19888 15.5049 7.12801 15.5346 7.06688 15.5746C6.93716 15.5541 6.83716 15.4758 6.82001 15.3621C6.79232 15.189 6.76756 15.0154 6.74573 14.8414C6.71601 14.6118 6.64288 14.5483 6.40173 14.5191C5.90458 14.4621 5.40916 14.3991 4.91201 14.3363L3.77772 14.1946C3.552 14.1661 3.46972 14.0094 3.588 13.8231C3.86001 13.4009 4.1343 12.9803 4.40687 12.5603L6.07716 9.98712C6.14288 9.88312 6.21716 9.81178 6.35888 9.81578C6.44916 9.81738 6.54288 9.79632 6.63201 9.77405C6.73773 9.74938 6.82059 9.77978 6.89488 9.84778C7.02631 9.96605 7.15888 10.0838 7.28916 10.2031L8.79716 11.5831C9.12231 11.8803 9.45031 12.1751 9.7749 12.4723C9.9429 12.6249 9.9429 12.7341 9.78517 12.8946ZM20.8744 15.1311C20.9687 15.2066 21.0704 15.2781 21.0904 15.4061C21.1155 15.5701 21.0475 15.6889 20.9035 15.7781C20.0532 16.3089 19.2035 16.8421 18.3537 17.3734L16.7109 18.3998C16.6595 18.4311 16.6097 18.4661 16.5629 18.5049C16.5215 18.5366 16.4884 18.5779 16.4665 18.6254C16.4448 18.6727 16.4349 18.7247 16.4377 18.7769C16.4464 18.9741 16.4577 19.1718 16.4607 19.3689C16.464 19.5951 16.2909 19.7369 16.0549 19.7111C15.9707 19.7007 15.8937 19.6581 15.84 19.5923L15.248 18.9318C15.0012 18.6563 14.7549 18.3786 14.5069 18.1031C14.4558 18.0551 14.4169 17.9955 14.3934 17.9295C14.3701 17.8634 14.3626 17.7927 14.372 17.7231L14.4064 16.5711C14.4104 16.4363 14.4932 16.3494 14.6052 16.2798L15.9629 15.4431C16.7229 14.9758 17.4852 14.5101 18.2429 14.0374C18.4029 13.9381 18.552 13.9083 18.728 13.9946C18.858 14.0583 19.0073 14.0702 19.1457 14.0278C19.3572 13.9631 19.5189 14.0198 19.6817 14.1591C20.072 14.4906 20.4772 14.8066 20.876 15.1306L20.8744 15.1311ZM13.5772 16.0871C13.6389 16.1454 13.6829 16.2186 13.704 16.2998C13.7412 16.4798 13.6669 16.6026 13.4909 16.6843C12.9057 16.9563 12.3852 17.2271 11.7954 17.4901C11.6892 17.5369 11.4777 17.6511 11.3572 17.6569H8.86574C8.82174 17.6581 8.77774 17.6398 8.73659 17.6243C8.69536 17.6087 8.65767 17.585 8.62574 17.5546C8.56402 17.4998 8.50002 17.4471 8.43888 17.3911C8.09488 17.0758 7.75716 16.7546 7.40573 16.4461C7.20973 16.2746 7.20688 16.0438 7.39431 15.8598C7.81488 15.4414 8.23088 15.0186 8.64916 14.5969C9.10002 14.1414 9.55089 13.6843 10.0012 13.2271C10.0356 13.1879 10.0777 13.1561 10.1249 13.1335C10.172 13.111 10.2233 13.0983 10.2754 13.0963C10.3278 13.0939 10.3802 13.1018 10.4296 13.1197C10.4789 13.1375 10.5242 13.1649 10.5629 13.2003L12.3629 14.9254C12.7669 15.3129 13.1749 15.6969 13.5772 16.0871ZM16.0549 8.32601C15.8624 8.03858 16.08 7.64144 16.4012 7.59C17.2589 7.45287 18.1144 7.294 18.9709 7.15058C19.16 7.11858 19.3097 7.20258 19.4144 7.35287C19.5937 7.61344 19.7709 7.87458 19.9492 8.13573C20.3252 8.68545 20.7017 9.23511 21.0737 9.78712C21.124 9.86138 21.1492 9.95058 21.1864 10.0329L21.164 10.0426C21.1584 10.1831 21.104 10.3181 21.0097 10.4261C20.4857 11.1049 19.956 11.7809 19.4327 12.4603C19.3828 12.5211 19.3192 12.5689 19.2469 12.5998C19.1739 12.6309 19.0945 12.6445 19.0153 12.6393C18.9361 12.6342 18.8592 12.6105 18.7909 12.5701C18.7237 12.5301 18.6672 12.4745 18.6264 12.4078C17.8607 11.1831 17.088 9.96205 16.3177 8.74087C16.2309 8.60201 16.1464 8.46087 16.0549 8.32601ZM14.5504 11.7318L14.4 13.0191C14.3584 13.3758 14.3132 13.7306 14.2709 14.0878L14.1229 15.3409C14.1132 15.4289 14.112 15.5181 14.0932 15.6038C14.0829 15.6449 14.0509 15.6974 14.0149 15.7111C13.9789 15.7249 13.9149 15.7054 13.8834 15.6791C13.7406 15.5609 13.6064 15.4358 13.4704 15.3111C12.98 14.8638 12.4932 14.4151 12.0029 13.9701C11.5772 13.5814 11.1504 13.1958 10.7224 12.8101C10.58 12.6826 10.5794 12.6421 10.716 12.5043L12.6744 10.5271L14.0114 9.17338L14.6669 8.5083C14.6857 8.48887 14.7017 8.46258 14.7252 8.45515C14.772 8.43858 14.8304 8.41687 14.8709 8.42887C14.9052 8.4403 14.9212 8.49973 14.9309 8.51573L14.5504 11.7318ZM18.356 12.7151C18.42 12.8146 18.4304 12.9094 18.36 13.0123C18.2835 13.1283 18.2515 13.2654 18.268 13.4021C18.28 13.5231 18.228 13.5974 18.1212 13.6621C17.284 14.1741 16.4509 14.6906 15.6172 15.2049C15.3549 15.3671 15.0932 15.5283 14.8304 15.6883C14.7257 15.7518 14.6189 15.7466 14.5617 15.6654C14.5297 15.6214 14.5257 15.5598 14.5172 15.5289L14.6269 14.7501L15.4046 9.31231L15.5052 8.62773C15.5069 8.60945 15.508 8.5883 15.5184 8.57458C15.544 8.54315 15.5732 8.49573 15.6064 8.49001C15.6424 8.4843 15.6977 8.51115 15.7207 8.54143C15.7817 8.6203 15.8309 8.70773 15.8852 8.79287L17.84 11.8934C18.012 12.1678 18.1824 12.4431 18.356 12.7151ZM14.3029 7.98658C14.3337 8.006 14.3944 8.02658 14.4257 8.06772C14.4749 8.13115 14.432 8.19115 14.3812 8.24201L13.7012 8.93173L11.7189 10.9318C11.3052 11.3506 10.8932 11.7718 10.4789 12.1906C10.3292 12.3414 10.2092 12.3414 10.0532 12.1986C9.56974 11.7569 9.08746 11.3129 8.60288 10.8729C8.13316 10.4443 7.66116 10.0174 7.18916 9.59005C7.12631 9.53231 7.07601 9.47005 7.08288 9.38085C7.09316 9.26085 7.16516 9.19231 7.30801 9.16885C7.56916 9.12311 7.83088 9.07911 8.09316 9.03573L14.3029 7.98658ZM7.56402 8.5963C8.03031 8.2883 8.49602 7.98258 8.96288 7.67687L13.4732 4.71514C13.6229 4.61629 13.7177 4.63686 13.7932 4.79286C14.104 5.43514 14.4132 6.07857 14.7229 6.72144C14.7629 6.8043 14.8012 6.8883 14.8424 6.9723C14.8749 7.03972 14.8532 7.09457 14.8109 7.15515C14.7566 7.22943 14.7104 7.30943 14.6732 7.39343C14.6605 7.43064 14.6374 7.46346 14.6068 7.48806C14.5761 7.51264 14.539 7.52799 14.5 7.5323C13.836 7.64658 13.1732 7.76372 12.5097 7.87743L7.58631 8.73115C7.54973 8.73687 7.51316 8.73115 7.47601 8.73115L7.45431 8.69115C7.49088 8.65973 7.52401 8.62258 7.56402 8.5963ZM2.8743 10.0678C2.58 10.062 2.40515 9.78605 2.5463 9.53232C2.66515 9.31805 2.79715 9.11178 2.92515 8.90258C3.29315 8.2963 3.66287 7.69115 4.02915 7.08543C4.08858 6.986 4.17487 6.90429 4.27887 6.84887C5.25488 6.30772 6.22916 5.76372 7.20459 5.222C7.26745 5.18542 7.33488 5.15914 7.40573 5.14486C7.47241 5.13208 7.54136 5.13842 7.60459 5.16314C7.66746 5.18772 7.72174 5.23 7.76002 5.28372C7.80227 5.33586 7.8281 5.39938 7.83419 5.46622C7.8403 5.53306 7.82642 5.60021 7.79431 5.65914C7.64688 5.962 7.49373 6.26143 7.34401 6.562C7.06401 7.114 6.78401 7.66487 6.50688 8.21687C6.48045 8.27835 6.43969 8.33263 6.38801 8.37515C6.33531 8.4183 6.27329 8.44862 6.20688 8.46373C6.08288 8.4923 5.96973 8.55345 5.87945 8.6403C5.78858 8.72715 5.72516 8.8363 5.69488 8.95573C5.67953 9.01518 5.64856 9.06938 5.60516 9.11285C5.56089 9.15698 5.50597 9.18885 5.44573 9.20538C4.64401 9.47738 3.84287 9.75512 3.04172 10.0301C2.988 10.0489 2.9303 10.0546 2.8743 10.0678ZM7.02688 8.30658C7.03099 8.2663 7.04263 8.22715 7.06116 8.19115L8.10916 5.97629C8.32688 5.51514 8.54802 5.05514 8.76288 4.59342C8.78208 4.54397 8.81611 4.50165 8.86031 4.47229C8.9045 4.44293 8.9567 4.42796 9.00974 4.42942C9.33717 4.41972 9.66397 4.40314 9.9909 4.39057L11.9212 4.32029C12.1469 4.31057 12.3744 4.29629 12.6012 4.28599C12.7629 4.27914 12.8737 4.37342 12.8754 4.52657C12.8824 4.62029 12.82 4.68086 12.74 4.734L7.24801 8.33858C7.2204 8.35867 7.19093 8.37608 7.16001 8.39058C7.08973 8.41915 7.02288 8.37915 7.02688 8.30658ZM5.66401 9.89805C5.50116 10.1511 5.33601 10.4031 5.17201 10.6558C4.55887 11.6009 3.94573 12.5466 3.332 13.4901C3.30655 13.5358 3.27262 13.5763 3.232 13.6094C3.12572 13.6826 2.98515 13.6311 2.93487 13.5031C2.85487 13.2969 2.77887 13.0883 2.7023 12.8814L2.03315 11.0666C2.01715 11.0209 2.00629 10.9751 2 10.9523C2.00115 10.8301 2.04287 10.7781 2.16229 10.7409C2.51772 10.6294 2.87372 10.5209 3.22972 10.4118L5.24516 9.79458L5.50973 9.71578C5.57258 9.69632 5.63601 9.67005 5.68801 9.73738C5.73488 9.79858 5.69601 9.84885 5.66401 9.89805ZM21.984 13.5278C21.9897 13.5638 21.9937 13.6003 22 13.6478C21.9904 13.6958 21.9789 13.7541 21.9629 13.8101L21.6977 14.7318C21.6224 14.9969 21.404 15.0591 21.184 14.8803C20.7327 14.5134 20.28 14.1471 19.8269 13.7831C19.724 13.6998 19.6812 13.6043 19.7052 13.4734C19.7347 13.3427 19.7185 13.2058 19.6595 13.0854C19.5967 12.9671 19.6172 12.8621 19.6977 12.7581C20.068 12.2791 20.4349 11.7991 20.804 11.3209L21.0292 11.0278C21.104 10.9283 21.2029 10.8803 21.3292 10.9078C21.4607 10.9363 21.5292 11.0231 21.5509 11.1478L21.984 13.5278ZM14.2177 4.754L14.1977 4.714C14.1709 4.65572 14.16 4.58829 14.2206 4.55514C14.2744 4.53229 14.3349 4.52886 14.3909 4.54542C14.4789 4.57172 14.5584 4.61972 14.6412 4.65972L18.0029 6.27857L18.6 6.56772C18.6669 6.59972 18.72 6.63743 18.7064 6.718C18.692 6.798 18.6292 6.81515 18.556 6.82829C17.748 6.96715 16.9412 7.1083 16.1337 7.24772L16.0549 7.26315C16.032 7.2483 15.988 7.2323 15.96 7.20144C15.8875 7.11358 15.7968 7.04227 15.6944 6.99229C15.5909 6.94175 15.478 6.91334 15.3629 6.90887C15.2732 6.90543 15.2269 6.854 15.1932 6.782C15.0509 6.48487 14.9064 6.19 14.7629 5.894L14.2177 4.754Z" fill="white"/>
</svg>

<svg xmlns="http://www.w3.org/2000/svg" width="24" height="24" fill="none" viewBox="0 0 24 24">
    <path fill="#fff" d="m9.785 12.895-1.65 1.662c-.297.299-.588.6-.886.898-.05.05-.121.08-.182.12-.13-.02-.23-.1-.247-.213a16 16 0 0 1-.074-.52c-.03-.23-.103-.294-.344-.323q-.745-.087-1.49-.183l-1.134-.141c-.226-.029-.308-.186-.19-.372q.409-.633.819-1.263l1.67-2.573c.066-.104.14-.175.282-.171.09.001.184-.02.273-.042a.27.27 0 0 1 .263.074q.198.177.394.355l1.508 1.38.978.89c.168.152.168.261.01.422m11.09 2.236c.094.076.195.147.215.275.026.164-.043.283-.186.372l-2.55 1.595L16.71 18.4a1 1 0 0 0-.148.105.32.32 0 0 0-.125.272c.008.197.02.395.023.592.003.226-.17.368-.406.342a.33.33 0 0 1-.215-.119l-.592-.66-.741-.829a.44.44 0 0 1-.135-.38l.034-1.152c.004-.135.087-.222.2-.291l1.357-.837c.76-.467 1.522-.933 2.28-1.406.16-.099.309-.129.485-.042a.57.57 0 0 0 .418.033c.211-.065.373-.008.536.131.39.332.795.648 1.194.972m-7.298.956a.45.45 0 0 1 .127.213c.037.18-.037.303-.213.384-.585.272-1.106.543-1.696.806-.106.047-.317.161-.438.167H8.866c-.044.001-.088-.017-.13-.033a.3.3 0 0 1-.11-.07q-.094-.08-.187-.163c-.344-.315-.682-.636-1.033-.945-.196-.171-.2-.402-.012-.586q.629-.63 1.255-1.263l1.352-1.37a.39.39 0 0 1 .429-.107q.074.027.133.08l1.8 1.725c.404.388.812.772 1.214 1.162m2.478-7.761c-.193-.287.025-.685.346-.736.858-.137 1.713-.296 2.57-.44.189-.031.339.053.443.203q.269.39.535.783.566.825 1.125 1.651c.05.074.075.164.112.246l-.022.01a.62.62 0 0 1-.154.383c-.524.679-1.054 1.355-1.577 2.034a.49.49 0 0 1-.418.18.48.48 0 0 1-.389-.232c-.765-1.225-1.538-2.446-2.308-3.667-.087-.139-.172-.28-.263-.415m-1.505 3.406-.15 1.287-.13 1.069-.147 1.253c-.01.088-.011.177-.03.263-.01.04-.042.093-.078.107s-.1-.006-.132-.032c-.142-.118-.277-.243-.413-.368q-.734-.672-1.467-1.34-.64-.584-1.28-1.16c-.143-.128-.144-.169-.007-.307l1.958-1.977 1.337-1.354.656-.665c.019-.02.035-.045.058-.053.047-.016.105-.038.146-.026.034.011.05.07.06.087zm3.806.983c.064.1.074.194.004.297a.58.58 0 0 0-.092.39c.012.121-.04.195-.147.26-.837.512-1.67 1.029-2.504 1.543q-.393.243-.787.483c-.104.064-.211.059-.268-.023-.032-.044-.036-.105-.045-.136l.11-.779.778-5.438.1-.684c.002-.019.003-.04.013-.053.026-.032.055-.08.088-.085.036-.006.092.021.115.051.06.08.11.167.164.252l1.955 3.1q.256.413.516.822m-4.053-4.728c.03.019.091.04.123.08.049.064.006.124-.045.175l-.68.69-1.982 2-1.24 1.259c-.15.15-.27.15-.426.008q-.724-.664-1.45-1.326-.706-.643-1.414-1.283c-.063-.058-.113-.12-.106-.21.01-.12.082-.188.225-.211q.392-.069.785-.133zm-6.739.61q.699-.462 1.399-.92l4.51-2.962c.15-.099.245-.078.32.078l.93 1.928q.058.125.12.251c.032.068.01.123-.032.183q-.081.112-.138.238a.21.21 0 0 1-.173.14l-1.99.344-4.924.854c-.036.006-.073 0-.11 0l-.022-.04c.037-.031.07-.068.11-.095m-4.69 1.47c-.294-.005-.469-.281-.328-.535.12-.214.251-.42.38-.63l1.103-1.817a.65.65 0 0 1 .25-.236l2.926-1.627a.7.7 0 0 1 .2-.077.36.36 0 0 1 .2.018.35.35 0 0 1 .155.12.34.34 0 0 1 .034.376c-.147.303-.3.602-.45.903q-.42.827-.837 1.655a.42.42 0 0 1-.3.247.7.7 0 0 0-.328.176.66.66 0 0 0-.184.316.34.34 0 0 1-.09.157.36.36 0 0 1-.16.092c-.801.272-1.602.55-2.403.825-.054.019-.112.025-.168.038m4.153-1.76a.3.3 0 0 1 .034-.116L8.11 5.976c.218-.46.439-.92.654-1.383a.26.26 0 0 1 .247-.164c.327-.01.654-.026.98-.038l1.931-.07c.226-.01.453-.025.68-.035.162-.007.273.087.274.24.007.094-.055.155-.135.208L7.248 8.339a.5.5 0 0 1-.088.052c-.07.028-.137-.012-.133-.084M5.664 9.898l-.492.758-1.84 2.834a.4.4 0 0 1-.1.12c-.106.073-.247.021-.297-.107q-.119-.31-.233-.622l-.669-1.814c-.016-.046-.027-.092-.033-.115.001-.122.043-.174.162-.211l1.068-.33 2.015-.616.265-.08c.063-.019.126-.045.178.022.047.062.008.112-.024.161m16.32 3.63c.006.036.01.072.016.12-.01.048-.021.106-.037.162l-.265.922c-.076.265-.294.327-.514.148q-.677-.55-1.357-1.097c-.103-.083-.146-.179-.122-.31a.6.6 0 0 0-.045-.388c-.063-.118-.043-.223.038-.327l1.106-1.437.225-.293c.075-.1.174-.148.3-.12.132.028.2.115.222.24zm-7.766-8.774-.02-.04c-.027-.058-.038-.126.023-.159a.25.25 0 0 1 .17-.01c.088.027.167.075.25.115l3.362 1.619.597.289c.067.032.12.07.106.15s-.077.097-.15.11l-2.422.42-.08.015c-.022-.015-.066-.03-.094-.062a.83.83 0 0 0-.597-.293c-.09-.003-.136-.054-.17-.126q-.214-.445-.43-.888z"/>
</svg>
